vectors/upcloud/upcloud.svg

<svg xmlns="http://www.w3.org/2000/svg" xmlns:xlink="http://www.w3.org/1999/xlink" viewBox="0 0 470 187" version="1.1">
    <!-- Generator: Sketch 51.3 (57544) - http://www.bohemiancoding.com/sketch -->
    <title>Group 2</title>
    <desc>Created with Sketch.</desc>
    <defs/>
    <g id="Page-1" stroke="none" stroke-width="1" fill="none" fill-rule="evenodd">
        <g id="About-us" transform="translate(-849.000000, -328.000000)" fill="#7B00FF" fill-rule="nonzero">
            <g id="Introduction-Header" transform="translate(-1.000000, -2.000000)">
                <g id="Group-2" transform="translate(850.000000, 330.000000)">
                    <path d="M433.144196,113.201954 L204.513274,113.201954 L204.513274,130.400651 L433.300364,130.400651 C444.232171,130.400651 452.977616,139.156352 452.977616,150.100977 C452.977616,161.045603 444.232171,169.801303 433.300364,169.801303 L187.178553,169.801303 L187.178553,91 L170,91 L170,187 L433.144196,187 C453.446122,187 470,170.42671 470,150.100977 C470,129.775244 453.446122,113.201954 433.144196,113.201954 Z" id="Shape"/>
                    <path d="M17.1785528,93.8179641 C17.1785528,82.8359281 25.9239979,74.0502994 36.8558043,74.0502994 L263.144196,74.0502994 C283.446122,74.0502994 300,57.4203593 300,37.0251497 C300,16.6299401 283.446122,0 263.144196,0 L169.755336,0 L169.755336,39.5353293 L186.933889,39.5353293 L186.933889,17.257485 L263.144196,17.257485 C274.076002,17.257485 282.821447,26.0431138 282.821447,37.0251497 C282.821447,48.0071856 274.076002,56.7928144 263.144196,56.7928144 L36.8558043,56.7928144 C16.5538782,56.7928144 0,73.4227545 0,93.8179641 C0,114.213174 16.3977095,131 36.8558043,131 L152.420614,131 L152.420614,113.742515 L36.8558043,113.742515 C25.9239979,113.585629 17.1785528,104.8 17.1785528,93.8179641 Z" id="Shape"/>
                </g>
            </g>
        </g>
    </g>
</svg>

<svg xmlns="http://www.w3.org/2000/svg" viewBox="0 0 470 187"><g fill="#7B00FF"><path d="M433.144 113.202h-228.63v17.199H433.3c10.932 0 19.678 8.755 19.678 19.7 0 10.945-8.746 19.7-19.678 19.7H187.18V91H170v96h263.144C453.446 187 470 170.427 470 150.101s-16.554-36.899-36.856-36.899z"/><path d="M17.179 93.818c0-10.982 8.745-19.768 19.677-19.768h226.288C283.446 74.05 300 57.42 300 37.025S283.446 0 263.144 0h-93.389v39.535h17.179V17.257h76.21c10.932 0 19.677 8.786 19.677 19.768 0 10.982-8.745 19.768-19.677 19.768H36.856C16.554 56.793 0 73.423 0 93.818S16.398 131 36.856 131H152.42v-17.257H36.856c-10.932-.157-19.677-8.943-19.677-19.925z"/></g></svg>
